X:410
T: Hbsch und fein, aber allein (128), S. 293
N: T0298
O: Luxemburg
N: Reuland, fff "alte <<Braalis>>", 1907
R: Liebeslieder]
M: 6/8
L: 1/8
K: G
B | B2GG2G | G2AB3 |
A2AE2E | DDGA3 |
G2EE2D | G2AB3 |
A2AG2E | D2z3

@@@ Tune index: 8464
